!!!OTL: ES WOLLT EIN VOEGLEIN HOCHZEIT MACHN
!!!ARE: Europa, Mitteleuropa, Deutschland, Charlottenburg
!!!SCT: E0163B
!!!YEM: Copyright 1995, estate of Helmut Schaffrath.
**kern
*ICvox
*Ivox
*M2/4
*k[]
*C:
{8G
=1
8c
8c
8e
8d
=2
8d
8c
8c}
{8G
=3
8A
8B
8c
8A
=4
8A
8G
8G}
{16G
16G
=5
8c
8c
8c
16c
16c
=6
8e
8e
8e}
{16e
16e
=7
8d
8d
8d
8B
=8
4c
8r}
==
!!!AGN: erzaehlendes Volks - Lied, Sage, Tier - Maerchen, Ballade ?
!!!ONB: ESAC (Essen Associative Code) Database: ERK1
!!!AMT: simple duple
!!!AIN: vox
!!!EED: Helmut Schaffrath
!!!EEV: 1.0
*-
